images/topbgu.svg

<svg height="900" viewBox="0 0 1440 900" width="1440" xmlns="http://www.w3.org/2000/svg"><g fill="none" fill-rule="evenodd"><path d="m0 0h1440v900h-1440z" fill="#121212"/><g fill="#f8f9f9" fill-opacity=".02" fill-rule="nonzero"><path d="m404.25-55c46.018151-45.879958 120.481849-45.879958 166.5 0 45.839634 45.70197768 45.951227 119.9111165.249249 165.750751-.082958.083208-.166041.166291-.249249.249249-46.018151 45.879958-120.481849 45.879958-166.5 0-45.839634-45.7019777-45.951227-119.91111651-.249249-165.7507508.082958-.0832079.166041-.1662911.249249-.2492492z"/><path d="m1101.25 358c46.01815-45.879958 120.48185-45.879958 166.5 0 45.83963 45.701978 45.95123 119.911117.24925 165.750751-.08296.083208-.16604.166291-.24925.249249-46.01815 45.879958-120.48185 45.879958-166.5 0-45.83963-45.701978-45.95123-119.911117-.24925-165.750751.08296-.083208.16604-.166291.24925-.249249z"/><path d="m1175.25-75c46.01815-45.879958 120.48185-45.879958 166.5 0 45.83963 45.7019777 45.95123 119.9111165.24925 165.7507508-.08296.0832079-.16604.1662911-.24925.2492492-46.01815 45.879958-120.48185 45.879958-166.5 0-45.83963-45.7019777-45.95123-119.9111165-.24925-165.7507508.08296-.0832079.16604-.1662911.24925-.2492492z"/><path d="m93 315c45.839634-45.839634 120.160366-45.839634 166 0s45.839634 120.160366 0 166-120.160366 45.839634-166 0c-45.8396342-45.839634-45.8396342-120.160366 0-166z"/><path d="m858 582c45.839634-45.839634 120.160366-45.839634 166 0 45.83963 45.839634 45.83963 120.160366 0 166-45.839634 45.839634-120.160366 45.839634-166 0s-45.839634-120.160366 0-166z"/></g></g></svg>

<?xml version="1.0" encoding="UTF-8"?>
<svg width="1440px" height="900px" viewBox="0 0 1440 900" version="1.1" xmlns="http://www.w3.org/2000/svg" xmlns:xlink="http://www.w3.org/1999/xlink">
    <title>topbgu</title>
    <g id="topbgu" stroke="none" stroke-width="1" fill="none" fill-rule="evenodd">
        <rect fill="#121212" x="0" y="0" width="1440" height="900"></rect>
        <path d="M404.25,-55 C450.268151,-100.879958 524.731849,-100.879958 570.75,-55 C616.589634,-9.29802232 616.701227,64.9111165 570.999249,110.750751 C570.916291,110.833959 570.833208,110.917042 570.75,111 C524.731849,156.879958 450.268151,156.879958 404.25,111 C358.410366,65.2980223 358.298773,-8.91111651 404.000751,-54.7507508 C404.083709,-54.8339587 404.166792,-54.9170419 404.25,-55 Z" id="Rectangle_54" fill-opacity="0.02" fill="#F8F9F9" fill-rule="nonzero"></path>
        <path d="M1101.25,358 C1147.26815,312.120042 1221.73185,312.120042 1267.75,358 C1313.58963,403.701978 1313.70123,477.911117 1267.99925,523.750751 C1267.91629,523.833959 1267.83321,523.917042 1267.75,524 C1221.73185,569.879958 1147.26815,569.879958 1101.25,524 C1055.41037,478.298022 1055.29877,404.088883 1101.00075,358.249249 C1101.08371,358.166041 1101.16679,358.082958 1101.25,358 Z" id="Rectangle_54备份-2" fill-opacity="0.02" fill="#F8F9F9" fill-rule="nonzero"></path>
        <path d="M1175.25,-75 C1221.26815,-120.879958 1295.73185,-120.879958 1341.75,-75 C1387.58963,-29.2980223 1387.70123,44.9111165 1341.99925,90.7507508 C1341.91629,90.8339587 1341.83321,90.9170419 1341.75,91 C1295.73185,136.879958 1221.26815,136.879958 1175.25,91 C1129.41037,45.2980223 1129.29877,-28.9111165 1175.00075,-74.7507508 C1175.08371,-74.8339587 1175.16679,-74.9170419 1175.25,-75 Z" id="Rectangle_54备份" fill-opacity="0.02" fill="#F8F9F9" fill-rule="nonzero"></path>
        <path d="M93,315 C138.839634,269.160366 213.160366,269.160366 259,315 C304.839634,360.839634 304.839634,435.160366 259,481 C213.160366,526.839634 138.839634,526.839634 93,481 C47.1603658,435.160366 47.1603658,360.839634 93,315 Z" id="Rectangle_55" fill-opacity="0.02" fill="#F8F9F9" fill-rule="nonzero"></path>
        <path d="M858,582 C903.839634,536.160366 978.160366,536.160366 1024,582 C1069.83963,627.839634 1069.83963,702.160366 1024,748 C978.160366,793.839634 903.839634,793.839634 858,748 C812.160366,702.160366 812.160366,627.839634 858,582 Z" id="Rectangle_55备份" fill-opacity="0.02" fill="#F8F9F9" fill-rule="nonzero"></path>
    </g>
</svg>
